packages/elvis-assets-icons/icons/svg/src/step_5.svg

<svg width="24" height="24" viewBox="0 0 24 24" fill="none" xmlns="http://www.w3.org/2000/svg">
<path d="M8.93529 11.829L9.16479 7.04999H14.9293V8.19749H10.2718L10.1503 10.9245C10.4563 10.8165 10.7623 10.7355 11.0683 10.6815C11.3743 10.6275 11.6938 10.6005 12.0268 10.6005C13.0438 10.6005 13.8673 10.8705 14.4973 11.4105C15.1273 11.9415 15.4423 12.6345 15.4423 13.4895C15.4423 14.4255 15.1093 15.186 14.4433 15.771C13.7773 16.347 12.9088 16.635 11.8378 16.635C11.1808 16.635 10.5598 16.527 9.97479 16.311C9.38979 16.095 8.86779 15.78 8.40879 15.366L9.23229 14.448C9.65529 14.817 10.0738 15.087 10.4878 15.258C10.9018 15.42 11.3608 15.501 11.8648 15.501C12.5218 15.501 13.0528 15.321 13.4578 14.961C13.8718 14.601 14.0788 14.133 14.0788 13.557C14.0788 13.008 13.8583 12.5625 13.4173 12.2205C12.9853 11.8695 12.4273 11.694 11.7433 11.694C11.4103 11.694 11.0773 11.73 10.7443 11.802C10.4203 11.865 10.0963 11.964 9.77229 12.099L8.93529 11.829Z" fill="black"/>
<mask id="path-4-inside-1" fill="white">
<path fill-rule="evenodd" clip-rule="evenodd" d="M12 24C18.6274 24 24 18.6274 24 12C24 5.37258 18.6274 0 12 0C5.37258 0 0 5.37258 0 12C0 18.6274 5.37258 24 12 24ZM22.5882 12C22.5882 17.8477 17.8477 22.5882 12 22.5882C6.15228 22.5882 1.41176 17.8477 1.41176 12C1.41176 6.15228 6.15228 1.41176 12 1.41176C17.8477 1.41176 22.5882 6.15228 22.5882 12Z"/>
</mask>
<path fill-rule="evenodd" clip-rule="evenodd" d="M12 24C18.6274 24 24 18.6274 24 12C24 5.37258 18.6274 0 12 0C5.37258 0 0 5.37258 0 12C0 18.6274 5.37258 24 12 24ZM22.5882 12C22.5882 17.8477 17.8477 22.5882 12 22.5882C6.15228 22.5882 1.41176 17.8477 1.41176 12C1.41176 6.15228 6.15228 1.41176 12 1.41176C17.8477 1.41176 22.5882 6.15228 22.5882 12Z" fill="#29D305"/>
<path d="M21 12C21 16.9706 16.9706 21 12 21V27C20.2843 27 27 20.2843 27 12H21ZM12 3C16.9706 3 21 7.02944 21 12H27C27 3.71573 20.2843 -3 12 -3V3ZM3 12C3 7.02944 7.02944 3 12 3V-3C3.71573 -3 -3 3.71573 -3 12H3ZM12 21C7.02944 21 3 16.9706 3 12H-3C-3 20.2843 3.71573 27 12 27V21ZM12 25.5882C19.5046 25.5882 25.5882 19.5046 25.5882 12H19.5882C19.5882 16.1909 16.1909 19.5882 12 19.5882V25.5882ZM-1.58824 12C-1.58824 19.5046 4.49542 25.5882 12 25.5882V19.5882C7.80913 19.5882 4.41176 16.1909 4.41176 12H-1.58824ZM12 -1.58824C4.49542 -1.58824 -1.58824 4.49542 -1.58824 12H4.41176C4.41176 7.80913 7.80913 4.41176 12 4.41176V-1.58824ZM25.5882 12C25.5882 4.49542 19.5046 -1.58824 12 -1.58824V4.41176C16.1909 4.41176 19.5882 7.80913 19.5882 12H25.5882Z" fill="#29D305" mask="url(#path-4-inside-1)"/>
</svg>

<svg width="24" height="24" fill="none" xmlns="http://www.w3.org/2000/svg"><mask id="a" fill="#fff"><path fill-rule="evenodd" clip-rule="evenodd" d="M12 24c6.627 0 12-5.373 12-12S18.627 0 12 0 0 5.373 0 12s5.373 12 12 12zm10.588-12c0 5.848-4.74 10.588-10.588 10.588-5.848 0-10.588-4.74-10.588-10.588C1.412 6.152 6.152 1.412 12 1.412c5.848 0 10.588 4.74 10.588 10.588z"/></mask><path fill-rule="evenodd" clip-rule="evenodd" d="M12 24c6.627 0 12-5.373 12-12S18.627 0 12 0 0 5.373 0 12s5.373 12 12 12zm10.588-12c0 5.848-4.74 10.588-10.588 10.588-5.848 0-10.588-4.74-10.588-10.588C1.412 6.152 6.152 1.412 12 1.412c5.848 0 10.588 4.74 10.588 10.588z" fill="#29D305"/><path d="M21 12a9 9 0 01-9 9v6c8.284 0 15-6.716 15-15h-6zm-9-9a9 9 0 019 9h6c0-8.284-6.716-15-15-15v6zm-9 9a9 9 0 019-9v-6C3.716-3-3 3.716-3 12h6zm9 9a9 9 0 01-9-9h-6c0 8.284 6.716 15 15 15v-6zm0 4.588c7.505 0 13.588-6.083 13.588-13.588h-6A7.588 7.588 0 0112 19.588v6zM-1.588 12c0 7.505 6.083 13.588 13.588 13.588v-6A7.588 7.588 0 014.412 12h-6zM12-1.588C4.495-1.588-1.588 4.495-1.588 12h6A7.588 7.588 0 0112 4.412v-6zM25.588 12c0-7.505-6.083-13.588-13.588-13.588v6A7.588 7.588 0 0119.588 12h6z" fill="#29D305" mask="url(#a)"/><path d="M8.878 12.068L9.102 7h5.964v1.316h-4.662l-.126 2.842a4.13 4.13 0 01.994-.364 4.314 4.314 0 011.05-.126c.97 0 1.755.275 2.352.826.607.541.91 1.255.91 2.142 0 .495-.093.947-.28 1.358-.177.401-.43.747-.756 1.036-.317.29-.705.518-1.162.686a4.586 4.586 0 01-1.512.238 5.186 5.186 0 01-1.862-.336 4.966 4.966 0 01-1.582-.994l.924-1.05c.42.373.835.644 1.246.812.41.159.854.238 1.33.238.616 0 1.115-.177 1.498-.532.392-.355.588-.817.588-1.386 0-.532-.2-.97-.602-1.316-.401-.345-.91-.518-1.526-.518a3.76 3.76 0 00-.966.126 5.104 5.104 0 00-.98.392l-1.064-.322z" fill="#000"/></svg>
